X: 12
T:Avant de s'en Aller
M:2/4
L:1/16
C:Imbert
S:French Creek
K:G
F3A G2F2|A6AB|c3B c2d2|cdcB A2G2|F3A G2F2|!
A6AB|c3B c2d2|A8:||FAdF A2d2|c2A2 B2G2|!
FAdF A2d2|c2A2 B4|FAdF A2d2|c2A2 B2G2|FAdF A2F2|G8:||
